X:1
T:Clarinet Concerto (Adagio theme)
C:Wolfgang Amadeus Mozart
M:3/4
L:1/8
Q:1/4=54
K:D
% K.622, 2nd movement (Adagio) – solo clarinet melody, A section (bars 1–12)
% Range D4–D5. Uppercase = C4–B4; lowercase c d = C5 D5.
| A6 | F3 G FE | D4 EF | G6 |
  A3 B AG | F3 E D2 | c4 BA | G6 |
  d3 c BA | G4 FE | F3 E D2 | D6 |]
